!!!!SEGMENT: pl-kk--kk-i-389--007-003_anonim--missa-no-7-gloria.krn
!!!cenid: 17xx:2501
!!!COM: Anonim
!!!COM-rismID: pe30004985
!!!CDT:
!!!CNT:
!!!OPR: [Missa] No. 7.
!!!OTL: Gloria
!!!OMV: 003
!!!PDT:
!!!AGN: Sacred; Mass
!!!YEC: Copyright 2022 Narodowy Instytut Fryderyka Chopina (https://polishscores.org)
!!!YEM: License CC-BY-4.0 (https://creativecommons.org/licenses/by/4.0)
!!!SMS-siglum: PL-Kk
!!!SMS-shelfmark: Kk.I.389
!!!SMS-variant:
!!!SMS-altvar:
!!!SMS-shelfwork: 007-003 M
!!!NIFC-rismSourceID: 1001146182
!!!NIFC-rismChildID: 1001147245
!!!NIFC-islandoraID: pl-kk:6976
!!!URL-pdf-islandora: https://repozytorium.nifc.pl/islandora/object/pl-kk%3A6976/datastream/PDF/view
!!!URL-scan: https://polish.musicsources.pl/pl/lokalizacje/galeria/rekopisy/5999/1 @EN{Scan on Polish Music Sources Website} @PL{Skany w portalu Dziedzictwo Muzyki Polskiej w otwartym dostępie}
!!!IIIF:
!!!ONB-nifc: UWAGA: S – skan 12-13, A – 31-32, T – 50-51, B – 69-70. Części Mszy: Rorate, Kyrie, Gloria, Graduale, Sanctus, Benedictus, Agnus.
!!!AIN: 1 alto 1 bass 1 soprn 1 tenor
!!!key: F
**kern	**text	**kern	**text	**kern	**text	**kern	**text
*part4	*part4	*part3	*part3	*part2	*part2	*part1	*part1
*staff4	*staff4	*staff3	*staff3	*staff2	*staff2	*staff1	*staff1
*Ibass	*	*Itenor	*	*Ialto	*	*Isoprn	*
*I"Basso.	*	*I"Tenore.	*	*I"Alto.	*	*I"Soprano.	*
*I'B	*	*I'T	*	*I'A	*	*I'S	*
*I'bass	*	*I'tenor	*	*I'alto	*	*I'soprn	*
*I'Cvox	*	*I'Cvox	*	*I'Cvox	*	*I'Cvox	*
*clefF4	*	*clefC4	*	*clefC3	*	*clefC1	*
*k[]	*	*k[]	*	*k[]	*	*k[]	*
*F:	*	*F:	*	*F:	*	*F:	*
*M4/4	*	*M4/4	*	*M4/4	*	*M4/4	*
*met(C.)	*	*met(C.)	*	*met(C.)	*	*met(C.)	*
=1	=1	=1	=1	=1	=1	=1	=1
*	*	*	*	*	*	*all\right global	*
4C/	Et	4c\	Et	4g\	Et	4ee\	Et
4E\	in	4G/	in	4e\	in	4cc\	in
4G\	ter-	4G/	ter-	4d\	ter-	4b\	ter-
4c\	-ra	4G/	-ra	4e\	-ra	4cc\	-ra
=2	=2	=2	=2	=2	=2	=2	=2
4.G\	pax	8B\L	pax	8d\L	pax	8b\L	pax
.	.	8A\J	.	8e\J	.	8cc\J	.
.	.	8G\L	ho-	8f\L	ho-	8dd\L	ho-
8G\	ho-	8B\J	.	8d\J	.	8b\J	.
8c\	-mi-	8G/	-mi-	8e\	-mi-	8cc\	-mi-
8G\	-ni-	8G/	-ni-	8e\	-ni-	8cc\	-ni-
4C/	-bus	4G/	-bus	4e\	-bus	4cc\	-bus
=3	=3	=3	=3	=3	=3	=3	=3
4c\	bo-	4G/	bo-	4e\	bo-	4cc\	bo-
!LO:SIC:v:o=4A\	!	!LO:SIC:v:o=4A/	!	!LO:SIC:v:o=4f#X\	!	!LO:SIC:v:o=4dd\	!
-nae	-ne	-nae	-ne	-nae	-ne	-nae	-ne
8G\L	vo-	8B\L	vo-	8g\L	vo-	4dd\	vo-
8A\J	.	16A\L	.	16f#\L	.	.	.
.	.	16c\JJ	.	16e\JJ	.	.	.
8B\L	-lun-	8B\L	.	8d\L	.	8b\L	.
8c\J	.	8A\J	-lun-	8c\J	-lun-	8cc\J	-lun-
=4	=4	=4	=4	=4	=4	=4	=4
*	*	*	*	*	*	*2\right	*
4d\	-ta-	4B\	-ta-	4d\	-ta-	2dd\	-ta-
4D\	.	4A\	.	4c\	.	.	.
4G\	-tis	4G\	-tis,	4B\	-tis,	4dd\	-tis,
4G\	Lau-	4r	.	8d\L	Lau-	8b\L	Lau-
.	.	.	.	8e\J	.	8cc\J	.
!LO:LB:g=original	!	!	!	!LO:LB:g=original	!	!	!
=5	=5	=5	=5	=5	=5	=5	=5
!	!	!LO:TX:a:t=1.	!	!	!	!	!
4G\	-da-	1r	.	4d/	-da-	4b\	-da-
4D\	-mus	.	.	4c/	-mus	4a\	-mus
!	!	!	!	!	!	!LO:LB:g=original	!
8GG/	te,	.	.	8B/	te,	8g\	te,
8G\	be-	.	.	8B/	be-	8g\	be-
8G\	-ne-	.	.	8d\	-ne-	8b\	-ne-
8G\	-di-	.	.	16d\LL	-di-	16b\LL	-di-
.	.	.	.	16e\JJ	.	16cc\JJ	.
!	!	!LO:LB:g=original	!	!	!	!	!
=6	=6	=6	=6	=6	=6	=6	=6
8G\L	-ci-	2r	.	4d/	-ci-	4b\	-ci-
8B\J	.	.	.	.	.	.	.
!LO:TX:t=P:problem:mixed beam	!	!	!	!	!	!	!
8d\L	-mus	.	.	4c/	-mus	4a\	-mus
8D/J	.	.	.	.	.	.	.
4G\	te	4r	.	4B/	te,	4g\	te,
8G\	a-	8d\	a-	8d\	a-	8b\	a-
8B\	-do-	8d\	-do-	8g\	-do-	8b\	-do-
=7	=7	=7	=7	=7	=7	=7	=7
8d\	-ra-	8d\	-ra-	8g\	-ra-	8b\	-ra-
8D\	-mus	8d\	-mus	8f#X\	-mus	8a\	-mus
4D\	te	4d\	te	4f#\	te,	4a\	te,
4r	.	4r	.	4r	.	4r	.
4D\	glo-	4c\	glo-	4f#\	glo-	4a\	glo-
=8	=8	=8	=8	=8	=8	=8	=8
8G\L	-ri-	8B\L	-ri-	8g\L	-ri-	8b\L	-ri-
8A\J	.	8A\J	.	8f#X\J	.	8a\J	.
8B\L	-fi-	8G\L	-fi-	8g\L	-fi-	8b\L	-fi-
8c\J	.	8A\J	.	8a\J	.	8cc\J	.
4d\	-ca-	4d\	-ca-	4g\	-ca-	4b\	-ca-
4D\	-mus	4d\	-mus	4f#\	-mus	4a\	-mus
=9	=9	=9	=9	=9	=9	=9	=9
4G\	te	4d\	te	4g\	te,	4b\	te,
4r	.	4r	.	4r	.	4r	.
!LO:LB:g=original	!	!	!	!LO:LB:g=original	!	!	!
4E\	Gra-	4B\	gra-	4g\	Gra-	4ee\	gra-
8G\	-ti-	8B\	-ti-	8g\	-ti-	8ee\	-ti-
8E\	-as	8B\	-as	8g\	-as	8ee\	-as
!	!	!	!	!	!	!LO:LB:g=original	!
=10	=10	=10	=10	=10	=10	=10	=10
4BB/	a-	4B\	a-	4f#X\	a-	4dd#X\	a-
8D#X/	-gi-	8B\	-gi-	8f#\	-gi-	8dd#\	-gi-
8BB/	-mus	8B\	-mus	8f#\	-mus	8dd#\	-mus
*	*	*	*	*2\right	*	*	*
8E\L	ti-	2B\	ti-	2g\	ti-	2ee\	ti-
!LO:SIC:v:o=8F\	!	!	!	!	!	!	!
8F#	.	.	.	.	.	.	.
8G\	.	.	.	.	.	.	.
8A\J	.	.	.	.	.	.	.
=11	=11	=11	=11	=11	=11	=11	=11
4B\	-bi	4B\	-bi	4f#X\	-bi	4dd#X\	-bi
4r	.	4r	.	4r	.	4r	.
!	!	!LO:LB:g=original	!	!	!	!	!
4c\	pro-	4A\	pro-	4f#\	pro-	4dd#\	pro-
4A\	-pter	4c\	-pter	4f#\	-pter	4dd#\	-pter
=12	=12	=12	=12	=12	=12	=12	=12
4F#X\	ma-	4c\	ma-	4a\	ma-	4dd#X\	ma-
4D#X\	-gnam	4A\	-gnam	4f#X\	-gnam	4b\	-gnam
4E\	glo-	4B\	glo-	4g\	glo-	4b\	glo-
8G\	-ri-	8B\	-ri-	8b\	-ri-	8ee\	-ri-
8E\	-am	8B\	-am	8g\	-am	8ee\	-am
=13	=13	=13	=13	=13	=13	=13	=13
*	*	*2\right	*	*	*	*	*
4B\	tu-	2B\	tu-	4g\	tu-	4ee\	tu-
4BB/	.	.	.	4f#X\	.	4dd#X\	.
4E\	-am	4B\	-am	4g\	-am,	4ee\	-am,
4r	.	4r	.	4r	.	4r	.
=14	=14	=14	=14	=14	=14	=14	=14
8G\L	Do-	4B\	Do-	8d\L	Do-	4ddn\	Do-
8D\J	.	.	.	8g\J	.	.	.
8BB/	-mi-	8B\	-mi-	8g\	-mi-	8dd\	-mi-
8D/	-ne	8B\	-ne	8g\	-ne	8dd\	-ne
!LO:LB:g=original	!	!	!	!LO:LB:g=original	!	!	!
4G\	De-	4B\	De-	4g\	De-	4dd\	De-
4D\	-us	4A\	-us	4f#X\	-us	4dd\	-us
!	!	!	!	!	!	!LO:LB:g=original	!
=15	=15	=15	=15	=15	=15	=15	=15
8B\L	Rex	8G\L	Rex	4g\	Rex	4dd\	Rex
8G\J	.	8B\J	.	.	.	.	.
!LO:SIC:v:o=8D\L	!	!LO:SIC:v:o=8G\L	!	!LO:SIC:v:o=4g\	!	!LO:SIC:v:o=4dd\	!
coe-	ce-	coe-	ce-	coe-	ce-	coe-	ce-
8G\J	.	8B\J	.	.	.	.	.
4D\	-le-	4A\	-le-	4f#X\	-le-	4dd\	-le-
4D\	-stis	4A\	-stis	4f#\	-stis	4dd\	-stis
=16	=16	=16	=16	=16	=16	=16	=16
8F#X\L	De-	4c\	De-	8a\L	De-	8a\L	De-
8E\J	.	.	.	8g\J	.	8b\J	.
8D\L	-us	4c\	-us	8f#X\L	-us	8cc\L	-us
8F#\J	.	.	.	8a\J	.	8a\J	.
8G\L	Pa-	8B\L	Pa-	8g\L	Pa-	4dd\	Pa-
8A\J	.	8c\J	.	8f#\J	.	.	.
8B\	-ter	8d\	-ter	8g\	-ter	8dd\	-ter
8G\	om-	8B\	om-	8g\	om-	8dd\	ōm-
!	!	!LO:LB:g=original	!	!	!	!	!
=17	=17	=17	=17	=17	=17	=17	=17
4c\	-ni-	4c\	-ni-	4e\	-ni-	4ee\	-ni-
8d\	-po-	4A\	-po-	4f#X\	-po-	4dd\	-po-
8D\	.	.	.	.	.	.	.
4G\	-tens	4B\	-tens	4g\	-tens	4dd\	-tens
4r	.	4r	.	4r	.	4r	.
=18	=18	=18	=18	=18	=18	=18	=18
4G#X\	Do-	4B\	Do-	4e\	Do-	4dd\	Do-
8G#\	-mi-	8B\	-mi-	8e\	-mi-	8dd\	-mi-
8G#\	-ne	8B\	-ne	8e\	-ne	8dd\	-ne
8A\L	Fi-	8c\L	Fi-	4e\	Fi-	8cc\L	Fi-
8B\J	.	8d\J	.	.	.	8b\J	.
8c\L	-li	8e\L	-li	4e\	-li	8a\L	-li
8A\J	.	8c\J	.	.	.	8cc\J	.
!LO:LB:g=original	!	!	!	!	!	!	!
=19	=19	=19	=19	=19	=19	=19	=19
4G#X\	u-	8B\L	u-	4e\	u-	8dd\L	u-
.	.	8G#X\J	.	.	.	8b\J	.
4A\	-ni-	4c\	-ni-	4e\	-ni-	4cc\	-ni-
!	!	!	!	!LO:LB:g=original	!	!LO:LB:g=original	!
8B\	-ge-	8B\	-ge-	8e\	-ge-	8b\	-ge-
8G#\	-ni-	8B\	-ni-	8e\	-ni-	8b\	-ni-
4E\	-te	4G#X/	-te	4e\	-te,	4b\	-te,
=20	=20	=20	=20	=20	=20	=20	=20
*2\right	*	*	*	*	*	*	*
2F\	Je-	2G#X/	Je-	2d\	Je-	2b\	Je-
4E\	.	4A\	.	4e\	.	4cc\	.
4D\	-su	4B\	-su	4fn\	-su	4b\	-su
=21	=21	=21	=21	=21	=21	=21	=21
4C/	Je-	4A/	Je-	4e\	Je-	4cc\	Je-
4D/	-su	4G#X/	-su	4fn\	-su	4b\	-su
2E\	Chri-	4A/	Chri-	2e\	Chri-	4cc\	Chri-
.	.	4G#/	.	.	.	4b\	.
=22	=22	=22	=22	=22	=22	=22	=22
2AA/	-ste	2A/	-ste	2e\	-ste,	2cc\	-ste,
!	!	!LO:N:vis=4.	!	!LO:TX:b:i:t=Volti Subitto	!	!	!
2r	.	2r	.	2r	.	2r	.
!	!	!LO:LB:g=original	!	!LO:PB:g=original	!	!	!
=23||	=23	=23	=23	=23	=23	=23	=23
8.C/	Quo-	8.G/	Quo-	8.g\	Quo-	8.ee\	Quo-
16BB/	-ni-	16G/	-ni-	16f\	-ni-	16dd\	-ni-
8C\	-am	8G/	-am	8e\	-am	8cc\	-am
8G\	tu	8G/	tu	8f\	tu	8dd\	tu
8c\	so-	8G/	so-	8e\	so-	8cc\	so-
8G\	-lus	8G/	-lus	8d\	-lus	8b\	-lus
8r	.	8r	.	8r	.	8r	.
8G\	tu	8G/	tu	16d\LL	tu	16b\LL	tu
.	.	.	.	16e\JJ	.	16cc\JJ	.
=24	=24	=24	=24	=24	=24	=24	=24
4G\	so-	4B\	so-	8f\L	so-	8dd\L	so-
.	.	.	.	16e\L	.	16cc\L	.
.	.	.	.	16f\JJ	.	16dd\JJ	.
4B\	-lus	8B\L	.	8g\	.	8ee\L	-lus
.	.	8G\J	-lus	8f\	-lus	8dd\J	.
!	!	!	!	!	!	!LO:LB:g=original	!
!LO:TX:t=P:problem:słowo nieczytelne	!	!	!	!	!	!	!
8c\	San-	8G/	san-	8f\	san-	8dd\	san-
8C/	-ctuſ	8G/	-ctus	8e\	-ctus	8cc\	-ctus,
8r	.	8r	.	8r	.	8r	.
8C/	tu	8c\	tu	8g\	tu	8ee\	tu
!LO:LB:g=original	!	!	!	!	!	!	!
=25	=25	=25	=25	=25	=25	=25	=25
4C/	so-	4c\	so-	4g\	so-	4ee\	so-
8BB/L	-lus	4G/	-lus	8f\	.	8dd\L	.
8C/J	.	.	.	8e\	-lus	8cc\J	-lus
8G\L	Do-	8G/L	Do-	8d\L	Do-	8b\L	Do-
8F#X\	.	8F#X/J	.	8e\J	.	8cc\J	.
8G\	.	8G/L	-mi-	8d\L	-mi-	8b\L	-mi-
8F#\J	-mi-	8F#/J	.	8e\J	.	8cc\J	.
=26	=26	=26	=26	=26	=26	=26	=26
4G\	-nus,	4G/	-nus	4d\	-nus	4b\	-nus,
!	!	!	!	!LO:LB:g=original	!	!LO:N:vis=4	!
8r	.	8r	.	8r	.	8r	.
8G\	tu	8B\	tu	8f\	tu	8dd\	tu
4G\	so-	4B\	so-	8.f\L	so-	8.dd\L	so-
.	.	.	.	16e\Jk	.	16cc\Jk	.
8G\	-lus	8G/	-lus	8d\	-lus	8b\	-lus
8G\	al-	8G/	al-	8d\	al-	8b\	al-
!	!	!LO:PB:g=original	!	!	!	!	!
=27	=27	=27	=27	=27	=27	=27	=27
8.C/	-tis-	8.G/	-tis-	8.g\	-tis-	8.ee\	-tis-
16D\	-si-	16G/	-si-	16f\	-si-	16dd\	-si-
4E\	-mus	4G/	-mus	4e\	-mus	4cc\	-mus
8C/	Je-	8c\	Je-	16e\LL	Je-	16g/LL	Je-
.	.	.	.	16d\JJ	.	16f/JJ	.
8F\	-su	8A\	-su	16f\LL	-su	16a/LL	-su
.	.	.	.	16d\JJ	.	16f/JJ	.
!LO:TX:t=P:problem:mixed beam	!	!	!	!	!	!	!
8G\L	Chri-	4G/	Chri-	8c/L	Chri-	8e/L	Chri-
8GG/J	.	.	.	8B/J	.	8d/J	.
!	!	!	!	!	!	!LO:LB:g=original	!
=28	=28	=28	=28	=28	=28	=28	=28
4C/	-ste	4G/	-ste,	4c/	-ste	4e/	-ste
8r	.	8r	.	8r	.	8r	.
8GG/	Cum	8G/	Cum	8d\	Cum	8g\	Cum
8C\L	san-	4.G/	San-	8e\L	san-	8cc\L	San-
8D\	.	.	.	8f\J	.	8b\J	.
8E\J	.	.	.	8e\L	-cto	4cc\	-cto
8F\	-cto	8G/	-cto	8d\J	.	.	.
=29	=29	=29	=29	=29	=29	=29	=29
8.G\	Spi-	8B\	Spi-	8.d\	spi-	8.b\	spi-
.	.	8A\	-ri-	.	.	.	.
16A\	-ri-	.	.	16d\	-ri-	16b\	-ri-
8B\	-tu	8G\	-tu	8d\	-tu	8b\	-tu
8G\	in	8B\	in	8d\	in	8b\	in
!LO:LB:g=original	!	!	!	!LO:LB:g=original	!	!	!
8G\	glo-	8B\	glo-	8f\	glo-	8dd\	glo-
16G\	-ri-	16B\	-ri-	16f\	-ri-	16dd\	-ri-
16A\	-a	16B\	-a	16f\	-a	16dd\	-a
8B\	De-	8G\	De-	16f\LL	De-	16dd\LL	De-
.	.	.	.	16a\JJ	.	16ff\JJ	.
8G\	-i	8B\	-i	16g\LL	-i	16ee\LL	-i
.	.	.	.	16f\JJ	.	16dd\JJ	.
=30	=30	=30	=30	=30	=30	=30	=30
8c\	Pa-	8G/	Pa-	8f\	A-	8dd\	A-
8C/	-tris	8G/	-tris	8e\	-men,	8cc\	-men,
4r	.	4r	.	4r	.	4r	.
4G\	a-	4G/	A-	4d\	a-	4b\	A-
4c\	-men	4G/	-men,	4e\	-men	4cc\	-men
!	!	!LO:LB:g=original	!	!	!	!	!
=31	=31	=31	=31	=31	=31	=31	=31
4G\	a-	4G/	a-	4f\	a-	4dd\	A-
4E\	-men	4G/	-men	4e\	.	4cc\	.
4F\	a-	4A/	A-	4f\	.	4dd\	.
!LO:TX:t=P:problem:mixed beam	!	!	!	!	!	!	!
8G\L	.	4G/	.	4d\	.	4b\	.
8GG/J	.	.	.	.	.	.	.
=32	=32	=32	=32	=32	=32	=32	=32
2C/	-men.	2G/	-men.	2e\	-men.	2cc\	-men.
2r	.	2r	.	2r	.	2r	.
==	==	==	==	==	==	==	==
*-	*-	*-	*-	*-	*-	*-	*-
!!!system-decoration: [(s1,s2,s3,s4)]
!!!ENC: Anastazja Marusiak
!!!END: 2023-11-09
!!!YEM: Copyright © 2023 by [Copyright Holder]
!!!ENC: Leszek Kubiak
!!!END: 2024-01-10
